!!!COA:	Josquin des Prez
!!!CDT:	~1450-1521/08/27
!!!OTL:	Judica me Deus
!!!AGN:	Motet
!!!SCT:	NJE 17.8
!!!SCA:	New Josquin Edition 17.8
!!!voices:	4
**kern	**kern	**kern	**kern
*staff4	*staff3	*staff2	*staff1
*Ivox	*Ivox	*Ivox	*Ivox
*I"Bassus	*I"Tenor	*I"Altus	*I"Superius
*I'B	*I'T	*I'A	*I'S
*clefF4	*clefGv2	*clefGv2	*clefG2
*k[]	*k[]	*k[]	*k[]
*M2/1	*M2/1	*M2/1	*M2/1
*met(C|)	*met(C|)	*met(C|)	*met(C|)
=1-	=1-	=1-	=1-
0r	0r	2.d\	0r
.	.	4d\	.
.	.	2d\	.
.	.	2d\	.
=2	=2	=2	=2
0r	0r	1d	0r
.	.	2c\	.
.	.	2c\	.
=3	=3	=3	=3
0r	0r	1f	2.a/
.	.	.	4a/
.	.	2f\	2a/
.	.	2e\	2a/
=4	=4	=4	=4
0r	0r	2d\	1a
.	.	2c\	.
.	.	1B	2g/
.	.	.	2g/
=5	=5	=5	=5
0r	0r	[0A	1cc
.	.	.	2cc\
.	.	.	2b\
=6	=6	=6	=6
2.D\	0r	0A]	2a/
.	.	.	2g/
4D\	.	.	.
2D\	.	.	2.f/
2D\	.	.	.
.	.	.	8e/L
.	.	.	8d/J
=7	=7	=7	=7
1D	0r	0r	1f
2C/	.	.	1e
2C/	.	.	.
=8	=8	=8	=8
1F	2.A/	0r	2A/
.	.	.	1a
.	4A/	.	.
2F\	2A/	.	.
2E\	2A/	.	2g/
=9	=9	=9	=9
2D\	1A	0r	2f/
2C/	.	.	1e
1BB	2G/	.	.
.	2G/	.	2d/
=10	=10	=10	=10
0AA	1c	1.a	1e
.	2c\	.	1r
.	2B\	2g\	.
=11	=11	=11	=11
0r	2A/	2f\	1a
.	2G/	1e	.
.	1F	.	2a/
.	.	2d\	2a/
=12	=12	=12	=12
0r	1E	2.e\	2.g/
.	.	4d\	4f/
.	1r	2e\	2g/
.	.	2f\	[2a/
=13	=13	=13	=13
1D	1.A	4f\	4a/]
.	.	4e\	4g/
.	.	4d\	4f/
.	.	4c\	4e/
2D\	.	1d	1f
2D\	2B\	.	.
=14	=14	=14	=14
2.C/	1.c	1e	2r
.	.	.	1e
4BB/	.	.	.
2C/	.	1r	.
2D\	[2B\	.	[2f/
=15	=15	=15	=15
4D\	4B\]	0r	4f/]
4C/	4A/	.	4e/
4BB/	1A	.	4d/
4AA/	.	.	4c/
1BB	.	.	1d
.	2G#i/	.	.
=16	=16	=16	=16
2AA/	0A	2r	2c/
2F\	.	2a\	2.A/
2F\	.	2a\	.
.	.	.	4B/
2F\	.	2a\	4c/
.	.	.	4d/
=17	=17	=17	=17
2.E\	0r	2.g\	4e/
.	.	.	4f/
.	.	.	2g/
4D\	.	4f\	.
2E\	.	2g\	2g/
2F\	.	[2a\	[2d/
=18	=18	=18	=18
0D	2r	4a\]	4d/]
.	.	4g\	4e/
.	2d\	4f\	4f/
.	.	4e\	4g/
.	2d\	1f	4a/
.	.	.	4g/
.	2d\	.	4a/
.	.	.	4b\
=19	=19	=19	=19
2r	2.c\	2e\	4cc\
.	.	.	4a/
1A	.	4c\	1cc
.	4B\	4d\	.
.	2c\	4e\	.
.	.	4f\	.
2G\	[2d\	2g\	[2b\
=20	=20	=20	=20
1F	4d\]	1d	2b\]
.	4c\	.	.
.	4B\	.	1a
.	4A/	.	.
1E	1B	1e	.
.	.	.	2g#i/
=21	=21	=21	=21
2.AA/	0A	2r	0a
.	.	2e\	.
4BB/	.	.	.
2C/	.	2e\	.
2D\	.	2d\	.
=22	=22	=22	=22
1AA	0r	2e\	2r
.	.	2A/	2a/
1r	.	1e	2a/
.	.	.	2g/
=23	=23	=23	=23
0r	0r	2r	2a/
.	.	2d\	2d/
.	.	2d\	1a
.	.	2c\	.
=24	=24	=24	=24
2r	0r	2d\	2r
2E\	.	2G/	2g/
2E\	.	2.d\	2g/
2D\	.	.	2f/
.	.	4c\	.
=25	=25	=25	=25
2E\	2r	4B\	2g/
.	.	4A/	.
2AA/	2A/	2c\	2c/
1E	2A/	1B	2.g/
.	2G/	.	.
.	.	.	4f/
=26	=26	=26	=26
2r	2A/	0A	4e/
.	.	.	4d/
2D\	2D/	.	2f/
2D\	1A	.	1e
2C/	.	.	.
=27	=27	=27	=27
2D\	2r	2r	0d
2GG/	2G/	2.d\	.
2.D\	2G/	.	.
.	.	4c\	.
.	2F/	4B\	.
4C/	.	4A/	.
=28	=28	=28	=28
4BB/	2G/	1G	2r
4AA/	.	.	.
2C/	2E/	.	2.g/
1BB	2.G/	2r	.
.	.	.	4f/
.	.	2G/	4e/
.	4F/	.	4d/
=29	=29	=29	=29
0AA	4E/	1A	2c/
.	4D/	.	.
.	2F/	.	1d
.	1E	2r	.
.	.	2a\	2c#i/
=30	=30	=30	=30
2r	0D	1.a	0d
2F\	.	.	.
2F\	.	.	.
2E\	.	2g\	.
=31	=31	=31	=31
2D\	1r	2f\	1r
2C/	.	2e\	.
1BB	1G	1d	1b
=32	=32	=32	=32
0AA	1.A	0c	1.cc
.	2G/	.	2b\
=33	=33	=33	=33
0r	2F/	1r	2a/
.	2E/	.	2g/
.	1D	1A	1f
=34	=34	=34	=34
0r	0C	1.c	0e
.	.	2c\	.
=35	=35	=35	=35
1D	2r	1d	0r
.	1A	.	.
[1F	.	[1A	.
.	[2c\	.	.
=36	=36	=36	=36
2F\]	2c\]	1A]	1r
2F\	2c\	.	.
1G	1B	2r	1d
.	.	[2d\	.
=37	=37	=37	=37
0D	1A	2d\]	1.f
.	.	2d\	.
.	2r	4d\	.
.	.	4c\	.
.	[2d\	4B\	2f/
.	.	4A/	.
=38	=38	=38	=38
2r	2d\]	1G	1g
1G	2d\	.	.
.	4d\	1r	2d/
.	4c\	.	.
2G\	4B\	.	[2g/
.	4A/	.	.
=39	=39	=39	=39
4G\	0G	0r	2g/]
4F\	.	.	.
4E\	.	.	2g/
4D\	.	.	.
1C	.	.	4g/
.	.	.	4f/
.	.	.	4e/
.	.	.	4d/
=40	=40	=40	=40
1r	1r	2r	0c
.	.	1g	.
1C	1G	.	.
.	.	2g\	.
=41	=41	=41	=41
1BB	1G	4g\	0r
.	.	4f\	.
.	.	4e\	.
.	.	4d\	.
[1AA	1A	[1c	.
=42	=42	=42	=42
1AA]	1c	1c]	0r
2.D\	2B\	2r	.
.	[2A/	[2f\	.
4C/	.	.	.
=43	=43	=43	=43
2BB/	4A/]	2f\]	1r
.	4G/	.	.
2C/	1G	4e\	.
.	.	4d\	.
1AA	.	1c	1cc
.	2F#i/	.	.
=44	=44	=44	=44
2GG/	1G	1r	1b
2G\	.	.	.
4F\	1r	1f	1a
4E\	.	.	.
4F\	.	.	.
4G\	.	.	.
=45	=45	=45	=45
1A	0r	2e\	1cc
.	.	2c\	.
2G\	.	2.d\	2b\
2F\	.	.	[2a/
.	.	4c\	.
=46	=46	=46	=46
2G\	0r	2B\	4a/]
.	.	.	4g/
2C/	.	2c\	1g
1D	.	1A	.
.	.	.	2f#i/
=47	=47	=47	=47
0GG	2r	1G	0g
.	2G/	.	.
.	2G/	1r	.
.	2G/	.	.
=48	=48	=48	=48
0r	1A	2r	1r
.	.	2c\	.
.	1c	2c\	2r
.	.	2c\	2g/
=49	=49	=49	=49
1G	1B	1d	2g/
.	.	.	2g/
2.F\	1A	1f	1a
4G\	.	.	.
=50	=50	=50	=50
2A\	1r	1e	1cc
2E\	.	.	.
1G	2r	1d	1b
.	2G/	.	.
=51	=51	=51	=51
1D	2.A/	1r	1a
.	4B\	.	.
1r	2d\	2r	1r
.	2c\	2c\	.
=52	=52	=52	=52
1G	1B	2.d\	2r
.	.	.	2g/
.	.	4e\	.
2.F\	1A	2f\	2.a/
.	.	2f\	.
4G\	.	.	4b\
=53	=53	=53	=53
2A\	0r	1e	2cc\
2E\	.	.	2cc\
1G	.	1d	1b
=54	=54	=54	=54
2.D\	2r	2d\	1a
.	2.A/	1f	.
4E\	.	.	.
4F\	.	.	1r
4G\	4B\	.	.
2A\	4c\	2e\	.
.	4d\	.	.
=55	=55	=55	=55
2E\	2e\	1.g	2r
2.G\	1B	.	2.d/
4F\	.	.	4e/
4D\	2d\	[2f\	4f/
4E\	.	.	4g/
=56	=56	=56	=56
4F\	2A/	4f\]	2a/
4G\	.	8e\L	.
.	.	8d\J	.
2.A\	2.c\	2c\	1e
.	.	2.e\	.
4G\	4B\	.	.
4E\	4G/	.	2a/
4F\	4A/	8d\L	.
.	.	8c\J	.
=57	=57	=57	=57
2G\	4B\	2B\	2d/
.	4c\	.	.
4D\	2d\	2A/	2.f/
4E\	.	.	.
4F\	2.A/	[1a	.
4G\	.	.	4e/
[2A\	.	.	4c/
.	4B\	.	4d/
=58	=58	=58	=58
4A\]	4c\	2a\]	4e/
4G\	4d\	.	4f/
4E\	2e\	4g\	2g/
4F\	.	4a\	.
1G	1B	4b\	2.d/
.	.	4cc\	.
.	.	2b\	.
.	.	.	4e/
=59	=59	=59	=59
1D	2d\	1a	4f/
.	.	.	4g/
.	2A/	.	2a/
2r	2.c\	2g\	1e
2A\	.	2a\	.
.	4B\	.	.
=60	=60	=60	=60
2E\	4G/	1b	2g/
.	4A/	.	.
2G\	4B\	.	2d/
.	4c\	.	.
2.D\	[1d	[1a	[1f
4E\	.	.	.
=61	=61	=61	=61
4F\	2d\]	0a_	2f/]
4G\	.	.	.
1A	4c\	.	4e/
.	4B\	.	4d/
.	2.A/	.	2c/
[2AA/	.	.	[2e/
.	4B\	.	.
=62	=62	=62	=62
4AA/]	2.c\	1a]	2e/]
4BB/	.	.	.
4C/	.	.	4d/
4D\	8B/L	.	4c/
.	8A/J	.	.
2E\	2G/	1r	2B/
2AA/	2A/	.	[2e/
=63	=63	=63	=63
2BB-/	2F/	1r	4e/]
.	.	.	4d/
2GG/	2G/	.	1d
1AA	1E	1a	.
.	.	.	2c#i/
=64	=64	=64	=64
1D	1D	2a\	2d/
.	.	2a\	2a/
1r	1r	2.cc\	2a/
.	.	.	[2cc\
.	.	4b\	.
=65	=65	=65	=65
0r	1A	2a\	2cc\]
.	.	2g\	2b\
.	2A/	1f	2a/
.	2A/	.	2a/
=66	=66	=66	=66
1r	2.c\	0e	4g/
.	.	.	4f/
.	.	.	4e/
.	4B\	.	4d/
1AA	2A/	.	2c/
.	2G/	.	2B/
=67	=67	=67	=67
2AA/	1F	2r	1A
2AA/	.	2c\	.
2.C/	[1E	2.e\	2G/
.	.	.	2g/
4BB/	.	4d\	.
=68	=68	=68	=68
2AA/	1E]	2c\	2a/
2GG/	.	2B\	2b\
1FF	1r	1A	[1cc
=69	=69	=69	=69
1C	0r	2G/	2cc\]
.	.	1g	4b\
.	.	.	4a/
2r	.	.	2g/
2D\	.	2f\	2d/
=70	=70	=70	=70
2D\	0r	2d\	2f/
2D\	.	2.f\	2d/
2.F\	.	.	2.a/
.	.	4e\	.
.	.	4d\	.
4E\	.	4c\	4e/
=71	=71	=71	=71
2D\	0r	4B\	2f/
.	.	4A/	.
2C/	.	1A	2e/
1BB	.	.	1d
.	.	2G#i/	.
=72	=72	=72	=72
[0AAl	2r	[0Al	[0cl
.	2A/	.	.
.	2A/	.	.
.	2A/	.	.
=73	=73	=73	=73
0AA_	2.c\	0A_	0c_
.	4B\	.	.
.	2A/	.	.
.	2G/	.	.
=74	=74	=74	=74
0AA]	1F	0A]	0c]
.	1El	.	.
!!LO:LB:i:g=z
=75||	=75||	=75||	=75||
*>B	*>B	*>B	*>B
*k[]	*k[]	*k[]	*k[]
*M2/1	*M2/1	*M2/1	*M2/1
*met(C|)	*met(C|)	*met(C|)	*met(C|)
!!section: Secunda pars: Et introibo ad altare
!!!OMD: Secunda pars: Et introibo ad altare
1.AA	1.A	0r	0r
2AA/	2A/	.	.
=76	=76	=76	=76
1C	1A	0r	0r
1D	1A	.	.
=77	=77	=77	=77
1E	0G	0r	0r
2r	.	.	.
2C/	.	.	.
=78	=78	=78	=78
1D	1r	0r	0r
1E	1G	.	.
=79	=79	=79	=79
1F	1A	0r	0r
1E	1B	.	.
=80	=80	=80	=80
0AA	1c	0r	0r
.	1c	.	.
=81	=81	=81	=81
1r	[0B	1r	1r
1E	.	1e	1g
=82	=82	=82	=82
1E	0B]	1e	1g
1E	.	1e	1g
=83	=83	=83	=83
1F	0r	1c	1a
1A	.	1c	1cc
=84	=84	=84	=84
1G	2r	1d	1b
.	2G/	.	.
1F	2.A/	1d	1a
.	4B\	.	.
=85	=85	=85	=85
1.E	2c\	1.e	1.g
.	2.B\	.	.
.	4A/	.	.
2F\	[2A/	4d\	2a/
.	.	4c\	.
=86	=86	=86	=86
2D\	2A/]	1B	1b
2E\	2G/	.	.
2AA/	1A	2.A/	2.cc\
[2F\	.	.	.
.	.	4G/	4b\
=87	=87	=87	=87
2F\]	1r	4A/	2a/
.	.	4B\	.
2E\	.	1c	2g/
1D	1F	.	1f
.	.	2B\	.
=88	=88	=88	=88
1C	1G	1c	0e
1r	1A	2r	.
.	.	2c\	.
=89	=89	=89	=89
1r	1D	1d	0r
1C	1r	1e	.
=90	=90	=90	=90
1D	1F	2A/	0r
.	.	1d	.
1E	1G	.	.
.	.	2B\	.
=91	=91	=91	=91
2AA/	1A	2c\	0r
1D	.	2d\	.
.	1D	1B	.
2BB/	.	.	.
=92	=92	=92	=92
2C/	2r	1A	0r
2D\	2A/	.	.
1BB	2A/	1r	.
.	2G/	.	.
=93	=93	=93	=93
1AA	1A	1c	0r
2r	1F	1d	.
2D\	.	.	.
=94	=94	=94	=94
2D\	1E	1e	0r
2C/	.	.	.
1D	2r	1A	.
.	2A/	.	.
=95	=95	=95	=95
1BB	2A/	2r	0r
.	2G/	2d\	.
1AA	1A	2d\	.
.	.	2c\	.
=96	=96	=96	=96
2r	1F	1d	2r
2D\	.	.	2a/
1E	1E	1B	2a/
.	.	.	2g/
=97	=97	=97	=97
1F	2r	1A	1a
.	2A/	.	.
1D	1B	2r	1f
.	.	2d\	.
=98	=98	=98	=98
1C	1c	1e	1e
2r	1A	1f	2r
2F\	.	.	2a/
=99	=99	=99	=99
1G	1G	1d	1b
1A	2r	1c	1cc
.	2c\	.	.
=100	=100	=100	=100
1F	1d	1f	1a
1E	2.e\	1g	2g/
.	.	.	[2e/
.	4d\	.	.
=101	=101	=101	=101
2r	2c\	1a	2e/]
2F\	2A/	.	2a/
2G\	1B	2d\	2a/
2E\	.	2e\	2g/
=102	=102	=102	=102
2.A\	1A	2c\	2.cc\
.	.	2.f\	.
4G\	.	.	4b\
2.F\	2r	.	4a/
.	.	4e\	4g/
.	2F/	[2d\	2a/
8E\L	.	.	.
8D\J	.	.	.
=103	=103	=103	=103
1E	2G/	2d\]	1g
.	2E/	2c\	.
2D\	2.A/	2d\	2f/
2AA/	.	2c\	[2e/
.	4G/	.	.
=104	=104	=104	=104
2BB/	2.F/	2B\	4e/]
.	.	.	4d/
2BB/	.	2G/	1d
.	8E/L	.	.
.	8D/J	.	.
1AA	1E	1A	.
.	.	.	2c#i/
=105	=105	=105	=105
2r	1D	0A	0d
2D\	.	.	.
2D\	2r	.	.
2D\	2A/	.	.
=106	=106	=106	=106
1.F	2A/	0r	0r
.	2A/	.	.
.	[1c	.	.
4E\	.	.	.
4D\	.	.	.
=107	=107	=107	=107
2C/	2c\]	0r	0r
2F\	4B\	.	.
.	4A/	.	.
2E\	2G/	.	.
2C/	2c\	.	.
=108	=108	=108	=108
2D\	2B\	0r	0r
2E\	2G/	.	.
2F\	2A/	.	.
2E\	2B\	.	.
=109	=109	=109	=109
2AA/	2c\	2r	0r
2.D\	2B\	2d\	.
.	2A/	2d\	.
4C/	.	.	.
[2D\	[2B\	2d\	.
=110	=110	=110	=110
4D\]	4B\]	1.f	0r
4C/	4A/	.	.
4BB/	1A	.	.
4AA/	.	.	.
1BB	.	.	.
.	2G#i/	4e\	.
.	.	4d\	.
=111	=111	=111	=111
0AA	[0A	1c	1r
.	.	2r	2r
.	.	2f\	2a/
=112	=112	=112	=112
0r	0A]	2e\	2a/
.	.	1f	2a/
.	.	.	[1cc
.	.	4e\	.
.	.	4d\	.
=113	=113	=113	=113
0r	0r	2c\	2cc\]
.	.	2f\	4b\
.	.	.	4a/
.	.	2e\	2g/
.	.	2c\	2cc\
=114	=114	=114	=114
0r	0r	2d\	2b\
.	.	2e\	2g/
.	.	2f\	2a/
.	.	2e\	2b\
=115	=115	=115	=115
0r	0r	2A/	2cc\
.	.	2.d\	2b\
.	.	.	2a/
.	.	4c\	.
.	.	[2d\	[2b\
=116	=116	=116	=116
0r	1r	4d\]	4b\]
.	.	4c\	4a/
.	.	4B\	1a
.	.	4A/	.
.	1E	1B	.
.	.	.	2g#i/
=117	=117	=117	=117
1r	2F/	2A/	1a
.	2D/	2d\	.
1AA	1E	2d\	1r
.	.	2c\	.
=118	=118	=118	=118
2BB/	2r	1d	2r
2GG/	2G/	.	2d/
1AA	2F/	1r	2d/
.	2E/	.	2c/
=119	=119	=119	=119
2r	1D	2r	2d/
2D\	.	2A/	2f/
2C/	2r	2A/	2e/
2BB/	2D/	2G/	2d/
=120	=120	=120	=120
1AA	2E/	0A	2c/
.	2C/	.	2.e/
1r	2F/	.	.
.	.	.	4d/
.	2D/	.	[2d/
=121	=121	=121	=121
2r	1E	2r	2d/]
2AA/	.	2A/	2c/
2BB/	1D	4G/	1d
.	.	4A/	.
2GG/	.	[2B\	.
=122	=122	=122	=122
2C/	0r	4B\]	0r
.	.	4A/	.
2AA/	.	1A	.
1BB	.	.	.
.	.	2G#i/	.
=123	=123	=123	=123
1AA	2r	1A	2r
.	2A/	.	2a/
1r	2B\	1r	4g/
.	.	.	4a/
.	2G/	.	[2b\
=124	=124	=124	=124
1r	2c\	1r	4b\]
.	.	.	4a/
.	2A/	.	1a
2r	1B	2r	.
2E\	.	2e\	2g#i/
=125	=125	=125	=125
2F\	1A	4d\	1a
.	.	4e\	.
2D\	.	2.f\	.
2G\	1r	.	1r
.	.	4e\	.
2E\	.	[2e\	.
=126	=126	=126	=126
1F	2r	2e\]	2r
.	2A/	2d\	2a/
1E	2B\	1e	2g/
.	2G/	.	[2b\
=127	=127	=127	=127
0E	2c\	1r	4b\]
.	.	.	4a/
.	2A/	.	1a
.	1B	2.e\	.
.	.	.	2g#i/
.	.	4d\	.
=128	=128	=128	=128
1r	0A	4c\	0a
.	.	4B\	.
.	.	1c	.
1AA	.	.	.
.	.	4B\	.
.	.	4A/	.
=129	=129	=129	=129
2BB/	0r	2G/	2r
2GG/	.	2.B\	2d/
2C/	.	.	2e/
.	.	4A/	.
2AA/	.	[2A/	2c/
=130	=130	=130	=130
1BB	1D	2A/]	2d/
.	.	2G/	2B/
1AA	2E/	[1Al	2c/
.	2C/	.	[2e/
=131	=131	=131	=131
0AA	2F/	0A_	4e/]
.	.	.	4d/
.	2D/	.	1d
.	1E	.	.
.	.	.	2c#i/
=132	=132	=132	=132
0Dl	0Dl	0A]	0dl
==	==	==	==
*-	*-	*-	*-
!!!RDF**kern: l=long note in original notation
!!!RDF**kern: i=editorial accidental
!!!RDF**kern: V=start of tuplet marker
!!!RDF**kern: Z=end of tuplet marker
!!!ENC:	Joel Chapman 2011/12/26
!!!END:	2012/12/26/
!!!EED:	Jesse Rodin
!!!EEV:	2012/02/02/
!!attribution-level@Jos: 5 (doubtful)
!!!ONB:	Translated from MusicXML and edited on 2012/02/02/ by Craig Sapp
!!muse2ps: C^@{COA}?\n@{SCT}^i2I150v95,95,95,150c110Q16
